src/Static/Positions/ks-position-39.svg

<?xml version="1.0" encoding="UTF-8"?>
<svg width="274px" height="162px" viewBox="0 0 274 162" version="1.1" xmlns="http://www.w3.org/2000/svg" xmlns:xlink="http://www.w3.org/1999/xlink">
    <title>sex-etsy-39</title>
    <defs>
        <circle id="path-1" cx="30.499341" cy="123.560001" r="22.4996962"></circle>
        <filter x="-18.9%" y="-14.4%" width="137.8%" height="137.8%" filterUnits="objectBoundingBox" id="filter-2">
            <feMorphology radius="1.5" operator="dilate" in="SourceAlpha" result="shadowSpreadOuter1"></feMorphology>
            <feOffset dx="0" dy="2" in="shadowSpreadOuter1" result="shadowOffsetOuter1"></feOffset>
            <feGaussianBlur stdDeviation="2" in="shadowOffsetOuter1" result="shadowBlurOuter1"></feGaussianBlur>
            <feComposite in="shadowBlurOuter1" in2="SourceAlpha" operator="out" result="shadowBlurOuter1"></feComposite>
            <feColorMatrix values="0 0 0 0 0   0 0 0 0 0   0 0 0 0 0  0 0 0 1 0" type="matrix" in="shadowBlurOuter1"></feColorMatrix>
        </filter>
        <path d="M68.1293,129.7132 C64.1498,125.6614 64.2084,119.1273 68.2611,115.1478 C70.2006,113.2445 72.7631,112.1966 75.4789,112.1966 C76.2859,112.1966 77.0748,112.299 77.8404,112.4777 L79.2463,105.1206 C70.2351,103.3773 60.4431,106.6434 58.1414,114.1058 C55.6335,122.2461 59.2574,134.3248 72.509,140.375 L73.5011,135.1835 L68.1293,129.7132 Z" id="path-3"></path>
        <filter x="-38.9%" y="-18.2%" width="178.9%" height="149.3%" filterUnits="objectBoundingBox" id="filter-4">
            <feMorphology radius="1.5" operator="dilate" in="SourceAlpha" result="shadowSpreadOuter1"></feMorphology>
            <feOffset dx="0" dy="2" in="shadowSpreadOuter1" result="shadowOffsetOuter1"></feOffset>
            <feGaussianBlur stdDeviation="2" in="shadowOffsetOuter1" result="shadowBlurOuter1"></feGaussianBlur>
            <feComposite in="shadowBlurOuter1" in2="SourceAlpha" operator="out" result="shadowBlurOuter1"></feComposite>
            <feColorMatrix values="0 0 0 0 0   0 0 0 0 0   0 0 0 0 0  0 0 0 1 0" type="matrix" in="shadowBlurOuter1"></feColorMatrix>
        </filter>
        <path d="M160.6295,111.7727 L154.3139,115.6927 C150.3188,119.5404 145.9614,121.5726 141.7006,121.5726 C136.9235,121.5726 132.4806,119.1197 128.4762,114.2827 C117.7437,114.3132 106.4059,112.0147 96.322,109.5307 L93.2038,125.847 L107.1322,140.0306 L144.976,140.0306 C145.2994,139.4329 145.5914,138.8225 145.847,138.1991 L191.5931,134.0963 L196.1076,134.902 L185.0946,109.5785 L160.6295,111.7727 Z" id="path-5"></path>
        <filter x="-8.4%" y="-22.4%" width="117.6%" height="156.8%" filterUnits="objectBoundingBox" id="filter-6">
            <feMorphology radius="1.5" operator="dilate" in="SourceAlpha" result="shadowSpreadOuter1"></feMorphology>
            <feOffset dx="0" dy="2" in="shadowSpreadOuter1" result="shadowOffsetOuter1"></feOffset>
            <feGaussianBlur stdDeviation="2" in="shadowOffsetOuter1" result="shadowBlurOuter1"></feGaussianBlur>
            <feComposite in="shadowBlurOuter1" in2="SourceAlpha" operator="out" result="shadowBlurOuter1"></feComposite>
            <feColorMatrix values="0 0 0 0 0   0 0 0 0 0   0 0 0 0 0  0 0 0 1 0" type="matrix" in="shadowBlurOuter1"></feColorMatrix>
        </filter>
        <path d="M226.3279,140.2958 L258.1137,145.9689 C258.8569,146.1012 259.5951,146.1652 260.3246,146.1652 C266.266,146.1652 271.5355,141.9128 272.6156,135.8595 C273.8285,129.0631 269.3021,122.5704 262.5062,121.3575 L214.3997,112.7714 L226.0492,139.5588 C226.1547,139.8015 226.2379,140.0494 226.3279,140.2958 Z" id="path-7"></path>
        <filter x="-16.2%" y="-20.9%" width="130.8%" height="152.3%" filterUnits="objectBoundingBox" id="filter-8">
            <feMorphology radius="1.5" operator="dilate" in="SourceAlpha" result="shadowSpreadOuter1"></feMorphology>
            <feOffset dx="0" dy="2" in="shadowSpreadOuter1" result="shadowOffsetOuter1"></feOffset>
            <feGaussianBlur stdDeviation="2" in="shadowOffsetOuter1" result="shadowBlurOuter1"></feGaussianBlur>
            <feComposite in="shadowBlurOuter1" in2="SourceAlpha" operator="out" result="shadowBlurOuter1"></feComposite>
            <feColorMatrix values="0 0 0 0 0   0 0 0 0 0   0 0 0 0 0  0 0 0 1 0" type="matrix" in="shadowBlurOuter1"></feColorMatrix>
        </filter>
        <path d="M223.9398,140.4759 L196.1068,76.4759 C194.89,73.679 192.5179,71.5491 189.6058,70.6405 C186.6956,69.7318 183.5326,70.1332 180.9408,71.7421 L153.8744,88.5424 C145.643,84.9469 133.5297,78.6188 120.1405,65.7255 C130.5214,55.6174 122.0148,48.6322 115.115,47.538 C115.1163,47.5099 115.1234,47.4835 115.1234,47.4551 C115.1234,46.4886 114.3399,45.7051 113.3734,45.7051 C112.4069,45.7051 111.6234,46.4886 111.6234,47.4551 C111.6234,47.5816 111.6383,47.7044 111.6638,47.8233 C109.4608,48.848 105.796,51.5623 102.2982,54.3564 C98.8148,55.6611 94.2889,57.4716 85.952,54.1357 C77.8646,59.5128 75.0435,70.2787 84.0632,79.9154 L85.0003,75.0117 C85.7923,70.8686 89.4222,67.8618 93.6331,67.8618 C94.1878,67.8618 94.7474,67.915 95.2972,68.0205 C100.0618,68.9311 103.1986,73.5493 102.2874,78.3154 L100.4494,87.9332 C107.8279,90.5575 117.0249,95.4701 129.4442,111.8051 C137.7059,122.6713 146.4696,120.1606 152.89,113.8696 L181.6937,95.9917 L204.682,148.8511 C206.4017,152.8052 210.2631,155.1665 214.3158,155.1665 C215.7142,155.1665 217.1351,154.8852 218.4984,154.2925 C223.8158,151.9798 226.2523,145.7933 223.9398,140.4759 Z" id="path-9"></path>
        <filter x="-5.8%" y="-5.9%" width="111.6%" height="115.5%" filterUnits="objectBoundingBox" id="filter-10">
            <feMorphology radius="1.5" operator="dilate" in="SourceAlpha" result="shadowSpreadOuter1"></feMorphology>
            <feOffset dx="0" dy="2" in="shadowSpreadOuter1" result="shadowOffsetOuter1"></feOffset>
            <feGaussianBlur stdDeviation="2" in="shadowOffsetOuter1" result="shadowBlurOuter1"></feGaussianBlur>
            <feComposite in="shadowBlurOuter1" in2="SourceAlpha" operator="out" result="shadowBlurOuter1"></feComposite>
            <feColorMatrix values="0 0 0 0 0   0 0 0 0 0   0 0 0 0 0  0 0 0 0.5 0" type="matrix" in="shadowBlurOuter1"></feColorMatrix>
        </filter>
        <path d="M63.8517,51.1366 C62.2304,50.2045 60.7659,49.1045 59.4556,47.8785 C54.092,53.0408 50.0484,61.3583 58.1676,75.2696 C66.6215,89.7544 62.9601,94.8214 58.8904,96.8396 C54.8207,98.8578 68.6978,101.0618 72.6096,86.306 C75.9061,73.8712 58.9074,58.8482 65.3359,51.9143 C64.8365,51.6719 64.3402,51.4175 63.8517,51.1366 Z" id="path-11"></path>
        <filter x="-43.7%" y="-14.0%" width="187.3%" height="134.8%" filterUnits="objectBoundingBox" id="filter-12">
            <feMorphology radius="1.5" operator="dilate" in="SourceAlpha" result="shadowSpreadOuter1"></feMorphology>
            <feOffset dx="0" dy="2" in="shadowSpreadOuter1" result="shadowOffsetOuter1"></feOffset>
            <feGaussianBlur stdDeviation="2" in="shadowOffsetOuter1" result="shadowBlurOuter1"></feGaussianBlur>
            <feComposite in="shadowBlurOuter1" in2="SourceAlpha" operator="out" result="shadowBlurOuter1"></feComposite>
            <feColorMatrix values="0 0 0 0 0   0 0 0 0 0   0 0 0 0 0  0 0 0 0.5 0" type="matrix" in="shadowBlurOuter1"></feColorMatrix>
        </filter>
        <circle id="path-13" cx="75.7123444" cy="30.5066671" r="21.4991099"></circle>
        <filter x="-19.8%" y="-15.1%" width="139.5%" height="139.5%" filterUnits="objectBoundingBox" id="filter-14">
            <feMorphology radius="1.5" operator="dilate" in="SourceAlpha" result="shadowSpreadOuter1"></feMorphology>
            <feOffset dx="0" dy="2" in="shadowSpreadOuter1" result="shadowOffsetOuter1"></feOffset>
            <feGaussianBlur stdDeviation="2" in="shadowOffsetOuter1" result="shadowBlurOuter1"></feGaussianBlur>
            <feComposite in="shadowBlurOuter1" in2="SourceAlpha" operator="out" result="shadowBlurOuter1"></feComposite>
            <feColorMatrix values="0 0 0 0 0   0 0 0 0 0   0 0 0 0 0  0 0 0 0.5 0" type="matrix" in="shadowBlurOuter1"></feColorMatrix>
        </filter>
        <path d="M106.1674,142.3304 L92.6788,128.5944 L89.0256,147.7104 L97.103,155.9359 C98.6069,157.4672 100.6645,158.3304 102.811,158.3304 L151.561,158.3304 C155.979,158.3304 159.561,154.7484 159.561,150.3304 C159.561,145.9124 155.979,142.3304 151.561,142.3304 L106.1674,142.3304 Z" id="path-15"></path>
        <filter x="-12.2%" y="-27.2%" width="124.3%" height="162.5%" filterUnits="objectBoundingBox" id="filter-16">
            <feMorphology radius="1.5" operator="dilate" in="SourceAlpha" result="shadowSpreadOuter1"></feMorphology>
            <feOffset dx="0" dy="2" in="shadowSpreadOuter1" result="shadowOffsetOuter1"></feOffset>
            <feGaussianBlur stdDeviation="2" in="shadowOffsetOuter1" result="shadowBlurOuter1"></feGaussianBlur>
            <feComposite in="shadowBlurOuter1" in2="SourceAlpha" operator="out" result="shadowBlurOuter1"></feComposite>
            <feColorMatrix values="0 0 0 0 0   0 0 0 0 0   0 0 0 0 0  0 0 0 1 0" type="matrix" in="shadowBlurOuter1"></feColorMatrix>
        </filter>
        <path d="M69.7699,128.1019 L74.0262,132.4362 L77.4078,114.7414 C74.8003,114.0957 71.9304,114.7693 69.8725,116.7884 C66.7201,119.8841 66.6742,124.9496 69.7699,128.1019 Z" id="path-17"></path>
        <filter x="-85.6%" y="-36.2%" width="273.4%" height="203.7%" filterUnits="objectBoundingBox" id="filter-18">
            <feMorphology radius="1.5" operator="dilate" in="SourceAlpha" result="shadowSpreadOuter1"></feMorphology>
            <feOffset dx="0" dy="2" in="shadowSpreadOuter1" result="shadowOffsetOuter1"></feOffset>
            <feGaussianBlur stdDeviation="2" in="shadowOffsetOuter1" result="shadowBlurOuter1"></feGaussianBlur>
            <feComposite in="shadowBlurOuter1" in2="SourceAlpha" operator="out" result="shadowBlurOuter1"></feComposite>
            <feColorMatrix values="0 0 0 0 0   0 0 0 0 0   0 0 0 0 0  0 0 0 1 0" type="matrix" in="shadowBlurOuter1"></feColorMatrix>
        </filter>
        <path d="M100.0287,77.8836 C100.7025,74.3572 98.39,70.9529 94.8637,70.2791 C91.3354,69.6023 87.933,71.9178 87.2592,75.4432 L72.9262,150.4437 C72.2524,153.9691 74.5649,157.3744 78.0912,158.0482 C78.5033,158.1263 78.9135,158.1644 79.3178,158.1644 C82.3754,158.1644 85.1,155.9974 85.6957,152.8831 L100.0287,77.8836 Z" id="path-19"></path>
        <filter x="-31.1%" y="-7.4%" width="162.2%" height="119.3%" filterUnits="objectBoundingBox" id="filter-20">
            <feMorphology radius="1.5" operator="dilate" in="SourceAlpha" result="shadowSpreadOuter1"></feMorphology>
            <feOffset dx="0" dy="2" in="shadowSpreadOuter1" result="shadowOffsetOuter1"></feOffset>
            <feGaussianBlur stdDeviation="2" in="shadowOffsetOuter1" result="shadowBlurOuter1"></feGaussianBlur>
            <feComposite in="shadowBlurOuter1" in2="SourceAlpha" operator="out" result="shadowBlurOuter1"></feComposite>
            <feColorMatrix values="0 0 0 0 0   0 0 0 0 0   0 0 0 0 0  0 0 0 0.5 0" type="matrix" in="shadowBlurOuter1"></feColorMatrix>
        </filter>
    </defs>
    <g id="Page-2" stroke="none" stroke-width="1" fill="none" fill-rule="evenodd">
        <g id="sex-etsy-39" transform="translate(-4.000000, -4.000000)" fill-rule="nonzero">
            <g id="Oval" transform="translate(30.499341, 123.560001) rotate(-63.768060) translate(-30.499341, -123.560001) ">
                <use fill="black" fill-opacity="1" filter="url(#filter-2)" xlink:href="#path-1"></use>
                <use stroke="#1A1A1D" stroke-width="3" fill="#4E4E50" xlink:href="#path-1"></use>
            </g>
            <g id="Path">
                <use fill="black" fill-opacity="1" filter="url(#filter-4)" xlink:href="#path-3"></use>
                <use stroke="#1A1A1D" stroke-width="3" fill="#4E4E50" xlink:href="#path-3"></use>
            </g>
            <g id="Path">
                <use fill="black" fill-opacity="1" filter="url(#filter-6)" xlink:href="#path-5"></use>
                <use stroke="#1A1A1D" stroke-width="3" fill="#4E4E50" xlink:href="#path-5"></use>
            </g>
            <g id="Path">
                <use fill="black" fill-opacity="1" filter="url(#filter-8)" xlink:href="#path-7"></use>
                <use stroke="#1A1A1D" stroke-width="3" fill="#4E4E50" xlink:href="#path-7"></use>
            </g>
            <g id="Path">
                <use fill="black" fill-opacity="1" filter="url(#filter-10)" xlink:href="#path-9"></use>
                <use stroke="#1A1A1D" stroke-width="3" fill="#6F2232" xlink:href="#path-9"></use>
            </g>
            <g id="Path">
                <use fill="black" fill-opacity="1" filter="url(#filter-12)" xlink:href="#path-11"></use>
                <use stroke="#1A1A1D" stroke-width="3" fill="#6F2232" xlink:href="#path-11"></use>
            </g>
            <g id="Oval" transform="translate(75.712344, 30.506667) rotate(-56.370321) translate(-75.712344, -30.506667) ">
                <use fill="black" fill-opacity="1" filter="url(#filter-14)" xlink:href="#path-13"></use>
                <use stroke="#1A1A1D" stroke-width="3" fill="#6F2232" xlink:href="#path-13"></use>
            </g>
            <g id="Path">
                <use fill="black" fill-opacity="1" filter="url(#filter-16)" xlink:href="#path-15"></use>
                <use stroke="#1A1A1D" stroke-width="3" fill="#4E4E50" xlink:href="#path-15"></use>
            </g>
            <g id="Path">
                <use fill="black" fill-opacity="1" filter="url(#filter-18)" xlink:href="#path-17"></use>
                <use stroke="#1A1A1D" stroke-width="3" fill="#4E4E50" xlink:href="#path-17"></use>
            </g>
            <g id="Path">
                <use fill="black" fill-opacity="1" filter="url(#filter-20)" xlink:href="#path-19"></use>
                <use stroke="#1A1A1D" stroke-width="3" fill="#6F2232" xlink:href="#path-19"></use>
            </g>
        </g>
    </g>
</svg>

<svg xmlns="http://www.w3.org/2000/svg" width="274" height="162" xmlns:xlink="http://www.w3.org/1999/xlink"><title>sex-etsy-39</title><defs><circle id="b" cx="30.499" cy="123.56" r="22.5"/><filter id="a" width="137.8%" height="137.8%" x="-18.9%" y="-14.4%" filterUnits="objectBoundingBox"><feMorphology radius="1.5" operator="dilate" in="SourceAlpha" result="shadowSpreadOuter1"/><feOffset dy="2" in="shadowSpreadOuter1" result="shadowOffsetOuter1"/><feGaussianBlur stdDeviation="2" in="shadowOffsetOuter1" result="shadowBlurOuter1"/><feComposite in="shadowBlurOuter1" in2="SourceAlpha" operator="out" result="shadowBlurOuter1"/><feColorMatrix values="0 0 0 0 0 0 0 0 0 0 0 0 0 0 0 0 0 0 1 0" in="shadowBlurOuter1"/></filter><path id="d" d="M68.13 129.7c-3.98-4.04-3.92-10.57.13-14.55 1.94-1.9 4.5-2.95 7.22-2.95.8 0 1.6.1 2.36.28l1.4-7.36c-9-1.74-18.8 1.52-21.1 9-2.5 8.13 1.12 20.2 14.37 26.25l1-5.2-5.37-5.46z"/><filter id="c" width="178.9%" height="149.3%" x="-38.9%" y="-18.2%" filterUnits="objectBoundingBox"><feMorphology radius="1.5" operator="dilate" in="SourceAlpha" result="shadowSpreadOuter1"/><feOffset dy="2" in="shadowSpreadOuter1" result="shadowOffsetOuter1"/><feGaussianBlur stdDeviation="2" in="shadowOffsetOuter1" result="shadowBlurOuter1"/><feComposite in="shadowBlurOuter1" in2="SourceAlpha" operator="out" result="shadowBlurOuter1"/><feColorMatrix values="0 0 0 0 0 0 0 0 0 0 0 0 0 0 0 0 0 0 1 0" in="shadowBlurOuter1"/></filter><path id="f" d="M160.63 111.77l-6.32 3.92c-3.98 3.84-8.34 5.87-12.6 5.87-4.78 0-9.22-2.45-13.22-7.3-10.74.04-22.07-2.26-32.16-4.74l-3.12 16.32 13.93 14.18h37.85c.32-.6.6-1.2.87-1.83l45.74-4.1 4.5.8-11-25.32-24.47 2.2z"/><filter id="e" width="117.6%" height="156.8%" x="-8.4%" y="-22.4%" filterUnits="objectBoundingBox"><feMorphology radius="1.5" operator="dilate" in="SourceAlpha" result="shadowSpreadOuter1"/><feOffset dy="2" in="shadowSpreadOuter1" result="shadowOffsetOuter1"/><feGaussianBlur stdDeviation="2" in="shadowOffsetOuter1" result="shadowBlurOuter1"/><feComposite in="shadowBlurOuter1" in2="SourceAlpha" operator="out" result="shadowBlurOuter1"/><feColorMatrix values="0 0 0 0 0 0 0 0 0 0 0 0 0 0 0 0 0 0 1 0" in="shadowBlurOuter1"/></filter><path id="h" d="M226.33 140.3l31.78 5.67c.76.13 1.5.2 2.22.2 5.95 0 11.22-4.26 12.3-10.3 1.2-6.8-3.32-13.3-10.1-14.5l-48.12-8.6 11.65 26.8c.1.23.2.48.28.73z"/><filter id="g" width="130.8%" height="152.3%" x="-16.2%" y="-20.9%" filterUnits="objectBoundingBox"><feMorphology radius="1.5" operator="dilate" in="SourceAlpha" result="shadowSpreadOuter1"/><feOffset dy="2" in="shadowSpreadOuter1" result="shadowOffsetOuter1"/><feGaussianBlur stdDeviation="2" in="shadowOffsetOuter1" result="shadowBlurOuter1"/><feComposite in="shadowBlurOuter1" in2="SourceAlpha" operator="out" result="shadowBlurOuter1"/><feColorMatrix values="0 0 0 0 0 0 0 0 0 0 0 0 0 0 0 0 0 0 1 0" in="shadowBlurOuter1"/></filter><path id="j" d="M223.94 140.48l-27.83-64c-1.2-2.8-3.58-4.93-6.5-5.84-2.9-.9-6.07-.5-8.66 1.1l-27.07 16.8c-8.23-3.6-20.34-9.92-33.73-22.8 10.38-10.12 1.87-17.1-5.03-18.2.02-.03.02-.06.02-.08 0-.97-.78-1.75-1.75-1.75-.96 0-1.75.8-1.75 1.76 0 .12.02.24.04.36-2.2 1.03-5.86 3.74-9.36 6.54-3.5 1.3-8 3.1-16.35-.22-8.1 5.37-10.9 16.14-1.9 25.78l.95-4.9c.8-4.15 4.42-7.16 8.63-7.16.56 0 1.12.06 1.67.16 4.76.9 7.9 5.53 7 10.3l-1.85 9.6c7.38 2.64 16.57 7.55 29 23.9 8.26 10.85 17.02 8.34 23.44 2.05L181.7 96l22.98 52.85c1.72 3.96 5.58 6.32 9.64 6.32 1.4 0 2.82-.28 4.18-.88 5.32-2.32 7.75-8.5 5.44-13.82z"/><filter id="i" width="111.6%" height="115.5%" x="-5.8%" y="-5.9%" filterUnits="objectBoundingBox"><feMorphology radius="1.5" operator="dilate" in="SourceAlpha" result="shadowSpreadOuter1"/><feOffset dy="2" in="shadowSpreadOuter1" result="shadowOffsetOuter1"/><feGaussianBlur stdDeviation="2" in="shadowOffsetOuter1" result="shadowBlurOuter1"/><feComposite in="shadowBlurOuter1" in2="SourceAlpha" operator="out" result="shadowBlurOuter1"/><feColorMatrix values="0 0 0 0 0 0 0 0 0 0 0 0 0 0 0 0 0 0 0.5 0" in="shadowBlurOuter1"/></filter><path id="l" d="M63.85 51.14c-1.62-.94-3.08-2.04-4.4-3.26-5.36 5.16-9.4 13.48-1.28 27.4 8.45 14.47 4.8 19.54.72 21.56-4.08 2.02 9.8 4.22 13.7-10.53 3.3-12.43-13.7-27.45-7.26-34.4-.5-.23-1-.48-1.5-.76z"/><filter id="k" width="187.3%" height="134.8%" x="-43.7%" y="-14%" filterUnits="objectBoundingBox"><feMorphology radius="1.5" operator="dilate" in="SourceAlpha" result="shadowSpreadOuter1"/><feOffset dy="2" in="shadowSpreadOuter1" result="shadowOffsetOuter1"/><feGaussianBlur stdDeviation="2" in="shadowOffsetOuter1" result="shadowBlurOuter1"/><feComposite in="shadowBlurOuter1" in2="SourceAlpha" operator="out" result="shadowBlurOuter1"/><feColorMatrix values="0 0 0 0 0 0 0 0 0 0 0 0 0 0 0 0 0 0 0.5 0" in="shadowBlurOuter1"/></filter><circle id="n" cx="75.712" cy="30.507" r="21.499"/><filter id="m" width="139.5%" height="139.5%" x="-19.8%" y="-15.1%" filterUnits="objectBoundingBox"><feMorphology radius="1.5" operator="dilate" in="SourceAlpha" result="shadowSpreadOuter1"/><feOffset dy="2" in="shadowSpreadOuter1" result="shadowOffsetOuter1"/><feGaussianBlur stdDeviation="2" in="shadowOffsetOuter1" result="shadowBlurOuter1"/><feComposite in="shadowBlurOuter1" in2="SourceAlpha" operator="out" result="shadowBlurOuter1"/><feColorMatrix values="0 0 0 0 0 0 0 0 0 0 0 0 0 0 0 0 0 0 0.5 0" in="shadowBlurOuter1"/></filter><path id="p" d="M106.17 142.33l-13.5-13.74-3.64 19.1 8.07 8.24c1.5 1.53 3.56 2.4 5.7 2.4h48.76c4.42 0 8-3.6 8-8 0-4.43-3.58-8-8-8h-45.4z"/><filter id="o" width="124.3%" height="162.5%" x="-12.2%" y="-27.2%" filterUnits="objectBoundingBox"><feMorphology radius="1.5" operator="dilate" in="SourceAlpha" result="shadowSpreadOuter1"/><feOffset dy="2" in="shadowSpreadOuter1" result="shadowOffsetOuter1"/><feGaussianBlur stdDeviation="2" in="shadowOffsetOuter1" result="shadowBlurOuter1"/><feComposite in="shadowBlurOuter1" in2="SourceAlpha" operator="out" result="shadowBlurOuter1"/><feColorMatrix values="0 0 0 0 0 0 0 0 0 0 0 0 0 0 0 0 0 0 1 0" in="shadowBlurOuter1"/></filter><path id="r" d="M69.77 128.1l4.26 4.34 3.38-17.7c-2.6-.64-5.47.03-7.53 2.05-3.15 3.08-3.2 8.15-.1 11.3z"/><filter id="q" width="273.4%" height="203.7%" x="-85.6%" y="-36.2%" filterUnits="objectBoundingBox"><feMorphology radius="1.5" operator="dilate" in="SourceAlpha" result="shadowSpreadOuter1"/><feOffset dy="2" in="shadowSpreadOuter1" result="shadowOffsetOuter1"/><feGaussianBlur stdDeviation="2" in="shadowOffsetOuter1" result="shadowBlurOuter1"/><feComposite in="shadowBlurOuter1" in2="SourceAlpha" operator="out" result="shadowBlurOuter1"/><feColorMatrix values="0 0 0 0 0 0 0 0 0 0 0 0 0 0 0 0 0 0 1 0" in="shadowBlurOuter1"/></filter><path id="t" d="M100.03 77.88c.67-3.52-1.64-6.93-5.17-7.6-3.52-.68-6.93 1.64-7.6 5.16l-14.33 75c-.68 3.53 1.63 6.93 5.16 7.6.4.1.8.12 1.22.12 3.06 0 5.78-2.16 6.38-5.28l14.33-75z"/><filter id="s" width="162.2%" height="119.3%" x="-31.1%" y="-7.4%" filterUnits="objectBoundingBox"><feMorphology radius="1.5" operator="dilate" in="SourceAlpha" result="shadowSpreadOuter1"/><feOffset dy="2" in="shadowSpreadOuter1" result="shadowOffsetOuter1"/><feGaussianBlur stdDeviation="2" in="shadowOffsetOuter1" result="shadowBlurOuter1"/><feComposite in="shadowBlurOuter1" in2="SourceAlpha" operator="out" result="shadowBlurOuter1"/><feColorMatrix values="0 0 0 0 0 0 0 0 0 0 0 0 0 0 0 0 0 0 0.5 0" in="shadowBlurOuter1"/></filter></defs><g fill="none"><g fill-rule="nonzero"><g id="Oval" transform="translate(-4 -4) rotate(-63.768 30.499 123.56)"><use fill="#000" filter="url(#a)" xlink:href="#b"/><use fill="#4E4E50" stroke="#1A1A1D" stroke-width="3" xlink:href="#b"/></g><g id="Path" transform="translate(-4 -4)"><use fill="#000" filter="url(#c)" xlink:href="#d"/><use fill="#4E4E50" stroke="#1A1A1D" stroke-width="3" xlink:href="#d"/></g><g id="Path" transform="translate(-4 -4)"><use fill="#000" filter="url(#e)" xlink:href="#f"/><use fill="#4E4E50" stroke="#1A1A1D" stroke-width="3" xlink:href="#f"/></g><g id="Path" transform="translate(-4 -4)"><use fill="#000" filter="url(#g)" xlink:href="#h"/><use fill="#4E4E50" stroke="#1A1A1D" stroke-width="3" xlink:href="#h"/></g><g id="Path" transform="translate(-4 -4)"><use fill="#000" filter="url(#i)" xlink:href="#j"/><use fill="#6F2232" stroke="#1A1A1D" stroke-width="3" xlink:href="#j"/></g><g id="Path" transform="translate(-4 -4)"><use fill="#000" filter="url(#k)" xlink:href="#l"/><use fill="#6F2232" stroke="#1A1A1D" stroke-width="3" xlink:href="#l"/></g><g transform="translate(-4 -4) rotate(-56.37 75.712 30.507)"><use fill="#000" filter="url(#m)" xlink:href="#n"/><use fill="#6F2232" stroke="#1A1A1D" stroke-width="3" xlink:href="#n"/></g><g id="Path" transform="translate(-4 -4)"><use fill="#000" filter="url(#o)" xlink:href="#p"/><use fill="#4E4E50" stroke="#1A1A1D" stroke-width="3" xlink:href="#p"/></g><g id="Path" transform="translate(-4 -4)"><use fill="#000" filter="url(#q)" xlink:href="#r"/><use fill="#4E4E50" stroke="#1A1A1D" stroke-width="3" xlink:href="#r"/></g><g transform="translate(-4 -4)"><use fill="#000" filter="url(#s)" xlink:href="#t"/><use fill="#6F2232" stroke="#1A1A1D" stroke-width="3" xlink:href="#t"/></g></g></g></svg>
